img/pic_company.svg

<svg width="240" height="240" viewBox="0 0 240 240" fill="none" xmlns="http://www.w3.org/2000/svg">
<path d="M227.069 20.8594H100.565V218.002H227.069V20.8594Z" fill="#CCCCCC"/>
<path d="M210.823 34.8047H118.378V49.1717H210.823V34.8047Z" fill="white"/>
<path d="M210.823 60.7031H118.378V75.0702H210.823V60.7031Z" fill="white"/>
<path d="M210.823 86.6016H118.378V100.969H210.823V86.6016Z" fill="white"/>
<path d="M210.823 112.5H118.378V126.867H210.823V112.5Z" fill="white"/>
<path d="M210.823 138.398H118.378V152.765H210.823V138.398Z" fill="white"/>
<path d="M210.823 164.297H118.378V178.664H210.823V164.297Z" fill="white"/>
<path d="M210.823 190.195H118.378V204.562H210.823V190.195Z" fill="white"/>
<path fill-rule="evenodd" clip-rule="evenodd" d="M65.801 98.7305C71.5176 98.7305 76.1948 106.899 76.1948 116.883V131.626C76.1948 141.61 71.5176 149.779 65.801 149.779C60.085 149.779 55.4077 141.61 55.4077 131.626V116.883C55.4077 106.899 60.085 98.7305 65.801 98.7305Z" fill="#EECAC5"/>
<path fill-rule="evenodd" clip-rule="evenodd" d="M31.9694 218.021L12.4905 217.963C12.4905 217.963 11.7099 197.017 12.4905 179.86C12.8948 170.977 14.3599 163.062 15.2127 159.695C16.6068 154.189 18.5789 147.083 20.1314 143.865C22.2235 139.53 25.5563 138.021 27.5606 136.874C29.093 135.997 31.9694 134.798 31.9694 134.798L38.9808 132.363C38.9808 132.363 34.4174 142.799 33.4355 148.354C32.2594 155.008 31.9236 172.288 31.9236 172.288L31.9694 218.021Z" fill="#B6EDFF"/>
<path fill-rule="evenodd" clip-rule="evenodd" d="M99.5858 218.021L119.065 217.963C119.065 217.963 119.845 197.017 119.065 179.86C118.66 170.977 117.195 163.062 116.343 159.695C114.948 154.189 112.976 147.083 111.424 143.865C109.332 139.53 105.999 138.021 103.995 136.874C102.462 135.997 99.5858 134.798 99.5858 134.798L92.5745 132.363C92.5745 132.363 97.1378 142.799 98.1198 148.354C99.2959 155.008 99.6314 172.288 99.6314 172.288L99.5858 218.021Z" fill="#B6EDFF"/>
<path fill-rule="evenodd" clip-rule="evenodd" d="M25.5615 218.027C25.5615 218.027 25.7464 189.069 26.7928 175.199C27.8182 161.611 32.3064 134.804 32.3064 134.804L39.3177 132.37L55.76 126.562C55.76 126.562 58.9851 133.815 65.7777 134.175C72.5702 133.815 75.7951 126.562 75.7951 126.562L92.2376 132.37L99.2489 134.804C99.2489 134.804 103.737 161.611 104.762 175.199C105.809 189.069 105.994 218.027 105.994 218.027H25.5615Z" fill="#CAF1FF"/>
<path fill-rule="evenodd" clip-rule="evenodd" d="M85.7022 96.6815C85.8219 96.6985 85.9394 96.7185 86.0559 96.7438L86.0599 96.745L86.0588 96.7446C88.2111 97.2112 89.834 99.1126 89.8622 101.408C89.8935 104.075 87.7569 106.265 85.0894 106.296C82.4217 106.328 80.2326 104.191 80.2006 101.525C80.181 99.9737 80.895 98.5853 82.0203 97.6883C81.8875 99.1138 82.1017 100.88 83.9207 101.07L83.8873 98.2839C83.8734 97.156 84.9292 96.645 85.7022 96.6815Z" fill="#F1D2CE"/>
<path fill-rule="evenodd" clip-rule="evenodd" d="M46.9417 96.622C46.822 96.6373 46.7043 96.6561 46.5875 96.6793L46.584 96.6807V96.6805C44.4261 97.1168 42.7771 98.9955 42.7165 101.29C42.6477 103.957 44.7545 106.176 47.4207 106.244C50.088 106.314 52.3067 104.207 52.3755 101.541C52.4163 99.9906 51.7219 98.5924 50.6093 97.6794C50.7227 99.1063 50.4832 100.87 48.662 101.034L48.7342 98.2494C48.7635 97.1218 47.7154 96.5964 46.9417 96.622Z" fill="#F1D2CE"/>
<path fill-rule="evenodd" clip-rule="evenodd" d="M65.8263 124.659C57.6532 124.659 46.0181 112.647 46.0181 102.127V86.8371C46.0181 75.9435 54.9327 67.0312 65.8239 67.0312H65.8263C76.7175 67.0312 85.6322 75.9435 85.6322 86.8371V101.83C85.6322 113.361 73.7026 124.659 65.8263 124.659Z" fill="#F1D2CE"/>
<path fill-rule="evenodd" clip-rule="evenodd" d="M46.0928 98.8269L48.0699 90.8217C48.0699 90.8217 54.4398 86.1489 52.1764 79.6463C49.9139 73.1429 49.4702 73.7872 49.4702 73.7872C49.4702 73.7872 40.9826 77.6097 44.7605 94.8465L46.0928 98.8269Z" fill="#00325B"/>
<path fill-rule="evenodd" clip-rule="evenodd" d="M85.3744 98.8269C85.3744 98.8269 79.3656 87.8636 78.8574 83.379C78.7268 82.2275 78.8288 80.975 79.2911 79.6463C81.5538 73.1429 81.998 73.7872 81.998 73.7872C81.998 73.7872 90.4846 77.6097 86.7072 94.8465L85.3744 98.8269Z" fill="#00325B"/>
<path fill-rule="evenodd" clip-rule="evenodd" d="M46.0194 90.9753C46.0194 90.9753 63.6762 91.8489 80.8621 83.0326C80.8621 83.0326 83.6084 80.6112 86.4808 79.3443C86.4808 79.3443 80.7325 64.5211 64.7052 65.4952C53.9224 66.1505 47.0013 73.4329 45.4856 78.8055C44.6427 81.794 46.0194 90.9753 46.0194 90.9753Z" fill="#00325B"/>
<path fill-rule="evenodd" clip-rule="evenodd" d="M78.1258 127.23C77.0327 133.049 71.9161 137.451 65.7795 137.451C59.7888 137.451 54.7703 133.256 53.5254 127.641L54.9716 127.188C54.9716 127.188 58.3235 134.063 65.433 134.205C72.7402 134.35 76.2034 126.562 76.2034 126.562L78.1258 127.23Z" fill="#004E8E"/>
<path fill-rule="evenodd" clip-rule="evenodd" d="M80.1324 127.918C77.7341 132.811 72.4978 137.775 65.8965 137.775C60.5634 137.775 54.8913 133.986 51.7749 127.86L55.448 126.562C55.448 126.562 58.801 134.103 65.8716 134.189L66.0366 134.185C72.9942 133.986 76.2953 126.562 76.2953 126.562L80.1324 127.918Z" fill="#92E4FF"/>
<path fill-rule="evenodd" clip-rule="evenodd" d="M69.0413 139.16H62.5634L59.1064 217.972H71.9344L69.0413 139.16Z" fill="#67DCFF"/>
<path fill-rule="evenodd" clip-rule="evenodd" d="M70.5716 132.891H61.0327L62.5632 140.07H69.0411L70.5716 132.891Z" fill="#67DCFF"/>
<path fill-rule="evenodd" clip-rule="evenodd" d="M76.1259 124.219L82.4222 128.476L70.5068 138.423L65.8264 132.817L76.1259 124.219Z" fill="#92E4FF"/>
<path fill-rule="evenodd" clip-rule="evenodd" d="M55.5005 124.219L49.2041 128.476L61.1198 138.423L65.7999 132.817L55.5005 124.219Z" fill="#92E4FF"/>
</svg>

<svg width="240" height="240" fill="none" xmlns="http://www.w3.org/2000/svg"><path d="M227.069 20.86H100.565v197.142h126.504V20.859z" fill="#CCC"/><path d="M210.823 34.805h-92.445v14.367h92.445V34.805zm0 25.898h-92.445V75.07h92.445V60.703zm0 25.899h-92.445v14.367h92.445V86.602zm0 25.898h-92.445v14.367h92.445V112.5zm0 25.898h-92.445v14.367h92.445v-14.367zm0 25.899h-92.445v14.367h92.445v-14.367zm0 25.898h-92.445v14.367h92.445v-14.367z" fill="#fff"/><path fill-rule="evenodd" clip-rule="evenodd" d="M65.801 98.73c5.717 0 10.394 8.169 10.394 18.153v14.743c0 9.984-4.677 18.153-10.394 18.153-5.716 0-10.393-8.169-10.393-18.153v-14.743c0-9.984 4.677-18.152 10.393-18.152z" fill="#EECAC5"/><path fill-rule="evenodd" clip-rule="evenodd" d="M31.97 218.021l-19.48-.058s-.78-20.946 0-38.103c.405-8.883 1.87-16.798 2.723-20.165 1.394-5.506 3.366-12.612 4.918-15.83 2.093-4.335 5.425-5.844 7.43-6.991 1.532-.877 4.408-2.076 4.408-2.076l7.012-2.435s-4.564 10.436-5.546 15.991c-1.176 6.654-1.511 23.934-1.511 23.934l.045 45.733zm67.616 0l19.479-.058s.78-20.946 0-38.103c-.405-8.883-1.87-16.798-2.722-20.165-1.395-5.506-3.367-12.612-4.919-15.83-2.092-4.335-5.425-5.844-7.429-6.991-1.533-.877-4.41-2.076-4.41-2.076l-7.01-2.435s4.563 10.436 5.545 15.991c1.176 6.654 1.511 23.934 1.511 23.934l-.045 45.733z" fill="#B6EDFF"/><path fill-rule="evenodd" clip-rule="evenodd" d="M25.561 218.027s.185-28.958 1.232-42.828c1.025-13.588 5.513-40.395 5.513-40.395l7.012-2.434 16.442-5.808s3.225 7.253 10.018 7.613c6.792-.36 10.017-7.613 10.017-7.613l16.443 5.808 7.01 2.434s4.489 26.807 5.514 40.395c1.047 13.87 1.232 42.828 1.232 42.828H25.561z" fill="#CAF1FF"/><path fill-rule="evenodd" clip-rule="evenodd" d="M85.702 96.681c.12.017.237.038.354.063l.004.001h-.001a4.831 4.831 0 11-4.038.944c-.133 1.425.08 3.191 1.9 3.381l-.034-2.786c-.014-1.128 1.042-1.639 1.815-1.603zm-38.76-.059c-.12.015-.238.034-.355.057l-.003.002a4.83 4.83 0 104.025.999c.114 1.426-.126 3.19-1.947 3.354l.072-2.785c.03-1.127-1.019-1.653-1.792-1.627z" fill="#F1D2CE"/><path fill-rule="evenodd" clip-rule="evenodd" d="M65.826 124.659c-8.173 0-19.808-12.012-19.808-22.532v-15.29c0-10.894 8.915-19.806 19.806-19.806h.002c10.892 0 19.806 8.912 19.806 19.806v14.993c0 11.531-11.93 22.829-19.806 22.829z" fill="#F1D2CE"/><path fill-rule="evenodd" clip-rule="evenodd" d="M46.093 98.827l1.977-8.005s6.37-4.673 4.106-11.176c-2.262-6.503-2.706-5.859-2.706-5.859s-8.487 3.823-4.71 21.06l1.333 3.98zm39.281 0s-6.008-10.963-6.517-15.448a8.367 8.367 0 01.434-3.733c2.263-6.503 2.707-5.859 2.707-5.859s8.487 3.823 4.71 21.06l-1.334 3.98z" fill="#00325B"/><path fill-rule="evenodd" clip-rule="evenodd" d="M46.02 90.975s17.656.874 34.842-7.942c0 0 2.746-2.422 5.619-3.689 0 0-5.748-14.823-21.776-13.849-10.783.655-17.704 7.938-19.22 13.31-.842 2.989.534 12.17.534 12.17z" fill="#00325B"/><path fill-rule="evenodd" clip-rule="evenodd" d="M78.126 127.23c-1.093 5.819-6.21 10.221-12.347 10.221a12.553 12.553 0 01-12.254-9.81l1.447-.453s3.352 6.875 10.461 7.017c7.307.145 10.77-7.643 10.77-7.643l1.923.668z" fill="#004E8E"/><path fill-rule="evenodd" clip-rule="evenodd" d="M80.132 127.918c-2.398 4.893-7.634 9.857-14.236 9.857-5.333 0-11.005-3.789-14.121-9.915l3.673-1.298s3.353 7.541 10.424 7.627l.165-.004c6.957-.199 10.258-7.623 10.258-7.623l3.837 1.356z" fill="#92E4FF"/><path fill-rule="evenodd" clip-rule="evenodd" d="M69.041 139.16h-6.478l-3.457 78.812h12.828l-2.893-78.812z" fill="#67DCFF"/><path fill-rule="evenodd" clip-rule="evenodd" d="M70.572 132.891h-9.54l1.531 7.179h6.478l1.53-7.179z" fill="#67DCFF"/><path fill-rule="evenodd" clip-rule="evenodd" d="M76.126 124.219l6.296 4.257-11.915 9.947-4.68-5.606 10.299-8.598zm-20.626 0l-6.296 4.257 11.916 9.947 4.68-5.606-10.3-8.598z" fill="#92E4FF"/></svg>
